public/assets/whys/Calendar.svg

<svg width="38" height="38" viewBox="0 0 38 38" fill="none" xmlns="http://www.w3.org/2000/svg">
<path d="M25.3333 3.16602V9.49935M12.6667 3.16602V9.49935M4.75 15.8327H33.25M7.91667 6.33268H30.0833C31.8322 6.33268 33.25 7.75045 33.25 9.49935V31.666C33.25 33.4149 31.8322 34.8327 30.0833 34.8327H7.91667C6.16776 34.8327 4.75 33.4149 4.75 31.666V9.49935C4.75 7.75045 6.16776 6.33268 7.91667 6.33268Z" stroke="url(#paint0_linear_9432_69559)" stroke-width="2.5" stroke-linecap="round" stroke-linejoin="round"/>
<defs>
<linearGradient id="paint0_linear_9432_69559" x1="4.75" y1="21.6126" x2="23.6202" y2="21.52" gradientUnits="userSpaceOnUse">
<stop stop-color="#F78C69"/>
<stop offset="0.484578" stop-color="#F35826"/>
<stop offset="1" stop-color="#E8420D"/>
</linearGradient>
</defs>
</svg>

<svg width="38" height="38" fill="none" xmlns="http://www.w3.org/2000/svg"><path d="M25.333 3.166v6.333M12.667 3.166v6.333M4.75 15.833h28.5m-25.333-9.5h22.166a3.167 3.167 0 0 1 3.167 3.166v22.167a3.167 3.167 0 0 1-3.167 3.167H7.917a3.167 3.167 0 0 1-3.167-3.167V9.499a3.167 3.167 0 0 1 3.167-3.166z" stroke="url(#a)" stroke-width="2.5" stroke-linecap="round" stroke-linejoin="round"/><defs><linearGradient id="a" x1="4.75" y1="21.613" x2="23.62" y2="21.52" gradientUnits="userSpaceOnUse"><stop stop-color="#F78C69"/><stop offset=".485" stop-color="#F35826"/><stop offset="1" stop-color="#E8420D"/></linearGradient></defs></svg>
